X:1
T:Step Stone
M:2/2
L:1/4
K:G
 D| D2 G A| B A2 G| G2 G E| D2 z2| D2 G3/2 G/2| G2 A B| A4| z4| D2 G A|\
 B2 A G| G2 G E| D2 z D| D2 G G| A2 G F| G4| z2 z D| D2 G A| B2 A G|\
 G2 G F| E2 z2| D2 G3/2 G/2| G2 A B| A2 A B| A2 z2| c2 B A| B2 A G|\
 G2 G F| E3 E| D2 G B| A2 G F| G4| z2 z||

